X: 867
T: Gönlümü Bir Tıfl-ı Dilbâz
C: Tâhir Ağa
O: Turkey
F: http://compmusic.upf.edu/node/140
N: hicazkar--sarki--turkaksagi--gonlumu_bir--tahir_aga
N: makam= hicazkar
N: form= sarki
N: usul= turkaksagi = 5/8
M: 5/8
L: 1/16
K: C _1/4B _7/8e _7/8A ^f
Q: 1/4=120
%%MIDI tuningsystem comma53
g4 g6 | ag abg4z2  | d2c2 B4 G2 | AG ABG4z2  | \
w:  ARANAĞME  |   |   |   | 
d2c2 B4 A2 | 
w:   | 
G2 A2B2 c2e2  | d2c2 B4 G2 | AG ABG4z2  | \
w:   |   |   | 
g4 g6 | ag abg4z2  | 
w:  ARANAĞME  |   | 
d2c2 B4 G2 | AG ABG4z2  | d2c2 B4 A2 | G2 A2B2 c2e2  | \
w:   |   |   |   | 
d2c2 B4 G2 | 
w:   | 
AG ABG4z2  | g4 _b2=a2 g2 | f2 e2d4c2  | \
w:   |  Gön lü  |  mü  *  bir   | 
d2e2 f2g2 =a2 | f2 e2d6  | 
w:  tıfl_ *  ı   |  dil *  bâz    | 
d4 c'2_b2 =a2 | g2 f2e2 d2c2  | B2c2 d4 c2 | \
w:  Ey le  |  di  *  ken  |  di *  ne   | 
c2 B2B4z2  | g4 _b2=a2 g2 | 
w:  hem *  râz    |  Gön lü  | 
f2 e2d4c2  | d2e2 f2g2 =a2 | f2 e2d6  | \
w:  mü  *  bir   |  tıfl_ *  ı   |  dil *  bâz    | 
d4 c'2_b2 =a2 | g2 f2e2 d2c2  | 
w:  Ey le  |  di  *  ken  | 
B2c2 d4 c2 | c2 B2B4z2  | B2c2 d2e2 f2 | \
w:  di *  ne   |  hem *  râz    |  Mis *  li   | 
g2 f2g4z2  | B2c2 d2e2 f2 | 
w:  yok  *  bir   |  şûh_ *  i   | 
e2 d2e4z2  | G2A2 B2c2 e2 | d2 c2B2 A2G2  | \
w:  müm *  tâz    |  Hüs *  nü   |  ser *  tâ  | 
d2c2 B4 c2 | BA AGG4z2  | 
w:  be *  ka  |  dem  *  *  *  nâz    | 
B2c2 d2e2 f2 | g2 f2g4z2  | B2c2 d2e2 f2 | \
w:  Mis *  li   |  yok  *  bir   |  şûh_ *  i   | 
e2 d2e4z2  | G2A2 B2c2 e2 | 
w:  müm *  tâz    |  Hüs *  nü   | 
d2 c2B2 A2G2  | d2c2 B4 c2 | BA AGG4z2  | \
w:  ser *  tâ  |  be *  ka  |  dem  *  *  *  nâz    | 
c4 c6 | c2 B2c4z2  | 
w:  Am man   |  am *  man   | 
B2c2 d4 c2 | c2 B2B4z2  | G2A2 B2c2 e2 | \
w:  kaş *  lar   |  ke *  man    |  Hüs *  nü   | 
d2 c2B2 A2G2  | d2c2 B4 c2 | 
w:  ser *  tâ  |  be *  ka  | 
BA AGG4z2  | c4 c6 | c2 B2c4z2  | B2c2 d4 c2 | \
w:  dem  *  *  *  nâz    |  Am man   |  am *  man   |  kaş *  lar   | 
c2 B2B4z2  | G2A2 B2c2 e2 | 
w:  ke *  man    |  Hüs *  nü   | 
d2 c2B2 A2G2  | d2c2 B4 c2 | BA AGG4z2  | \
w:  ser *  tâ  |  be *  ka  |  dem  *  *  *  nâz    | 
g4 g6 | ag abg4z2  | 
w:  ARANAĞME  |   | 
d2c2 B4 G2 | AG ABG4z2  | d2c2 B4 A2 | G2 A2B2 c2e2  | \
w:   |   |   |   | 
d2c2 B4 G2 | 
w:   | 
AG ABG4z2  | g4 g6 | ag abg4z2  | d2c2 B4 G2 | \
w:   |  ARANAĞME  |   |   | 
AG ABG4z2  | 
w:   | 
d2c2 B4 A2 | G2 A2B2 c2e2  | d2c2 B4 G2 | \
w:   |   |   | 
AG ABG4z2  | g4 _b2=a2 g2 | 
w:   |  Gön lü  | 
f2 e2d4c2  | d2e2 f2g2 =a2 | f2 e2d6  | \
w:  mü  *  bir   |  tıfl_ *  ı   |  dil *  bâz    | 
d4 c'2_b2 =a2 | g2 f2e2 d2c2  | 
w:  Ey le  |  di  *  ken  | 
B2c2 d4 c2 | c2 B2B4z2  | g4 _b2=a2 g2 | \
w:  di *  ne   |  hem *  râz    |  Gön lü  | 
f2 e2d4c2  | d2e2 f2g2 =a2 | 
w:  mü  *  bir   |  tıfl_ *  ı   | 
f2 e2d6  | d4 c'2_b2 =a2 | g2 f2e2 d2c2  | \
w:  dil *  bâz    |  Ey le  |  di  *  ken  | 
B2c2 d4 c2 | c2 B2B4z2  | B2c2 d2e2 f2 | 
w:  di *  ne   |  hem *  râz    |  Mis *  li   | 
g2 f2g4z2  | B2c2 d2e2 f2 | e2 d2e4z2  | \
w:  yok  *  bir   |  şûh_ *  i   |  müm *  tâz    | 
G2A2 B2c2 e2 | d2 c2B2 A2G2  | 
w:  Hüs *  nü   |  ser *  tâ  | 
d2c2 B4 c2 | BA AGG4z2  | B2c2 d2e2 f2 | \
w:  be *  ka  |  dem  *  *  *  nâz    |  Mis *  li   | 
g2 f2g4z2  | B2c2 d2e2 f2 | 
w:  yok  *  bir   |  şûh_ *  i   | 
e2 d2e4z2  | G2A2 B2c2 e2 | d2 c2B2 A2G2  | \
w:  müm *  tâz    |  Hüs *  nü   |  ser *  tâ  | 
d2c2 B4 c2 | BA AGG4z2  | 
w:  be *  ka  |  dem  *  *  *  nâz    | 
c4 c6 | c2 B2c4z2  | B2c2 d4 c2 | c2 B2B4z2  | \
w:  Am man   |  am *  man   |  kaş *  lar   |  ke *  man    | 
G2A2 B2c2 e2 | d2 c2B2 A2G2  | 
w:  Hüs *  nü   |  ser *  tâ  | 
d2c2 B4 c2 | BA AGG4z2  | c4 c6 | c2 B2c4z2  | \
w:  be *  ka  |  dem  *  *  *  nâz    |  Am man   |  am *  man   | 
B2c2 d4 c2 | c2 B2B4z2  | 
w:  kaş *  lar   |  ke *  man    | 
G2A2 B2c2 e2 | d2 c2B2 A2G2  | d2c2 B4 c2 | \
w:  Hüs *  nü   |  ser *  tâ  |  be *  ka  | 
BA AGG4z2  | |


